openmetadata-ui/src/main/resources/ui/src/assets/svg/pipeline-grey.svg

<svg xmlns="http://www.w3.org/2000/svg" width="16" height="16" viewBox="0 0 16 16" fill="none">
<path d="M10.6667 3.66663C10.9429 3.66663 11.1667 3.44277 11.1667 3.16663C11.1667 2.89048 10.9429 2.66663 10.6667 2.66663V3.66663ZM7.60538 10.9403C7.77492 11.1582 8.08905 11.1975 8.30703 11.028C8.525 10.8584 8.56427 10.5443 8.39473 10.3263L7.60538 10.9403ZM5.33339 2.66663C5.05725 2.66663 4.83339 2.89048 4.83339 3.16663C4.83339 3.44277 5.05725 3.66663 5.33339 3.66663V2.66663ZM4.6614 5.52632L4.35443 5.13165L3.56508 5.74559L3.87205 6.14026L4.6614 5.52632ZM10.6667 2.66663H5.33339V3.66663H10.6667V2.66663ZM3.87205 6.14026L7.60538 10.9403L8.39473 10.3263L4.6614 5.52632L3.87205 6.14026Z" fill="#37352F"/>
<rect x="11.1666" y="1" width="4.33333" height="4.33333" rx="0.5" stroke="#37352F" stroke-linejoin="round"/>
<rect x="0.5" y="1" width="4.33333" height="4.33333" rx="0.5" stroke="#37352F" stroke-linejoin="round"/>
<rect x="7.96667" y="10.6" width="4.33333" height="4.33333" rx="0.5" stroke="#37352F" stroke-linejoin="round"/>
</svg>

<svg xmlns="http://www.w3.org/2000/svg" width="16" height="16" fill="none"><path fill="currentColor" d="M10.667 3.667a.5.5 0 1 0 0-1v1ZM7.605 10.94a.5.5 0 0 0 .79-.614l-.79.614ZM5.333 2.667a.5.5 0 1 0 0 1v-1Zm-.672 2.86-.307-.395-.789.614.307.394.79-.614Zm6.006-2.86H5.333v1h5.334v-1ZM3.872 6.14l3.733 4.8.79-.614-3.734-4.8-.789.614Z"/><rect width="4.333" height="4.333" x="11.167" y="1" stroke="currentColor" stroke-linejoin="round" rx=".5"/><rect width="4.333" height="4.333" x=".5" y="1" stroke="currentColor" stroke-linejoin="round" rx=".5"/><rect width="4.333" height="4.333" x="7.967" y="10.6" stroke="currentColor" stroke-linejoin="round" rx=".5"/></svg>
